gama.extension.image/models/Images/includes/emoji/emoji_u1fae5.svg

<svg xmlns="http://www.w3.org/2000/svg" xml:space="preserve" viewBox="0 0 128 128"><path d="M79 88H49c-2.21 0-4-1.79-4-4s1.79-4 4-4h30c2.21 0 4 1.79 4 4s-1.79 4-4 4" style="fill:#823e00"/><path d="M44.67 45.94c-4.19 0-8 3.54-8 9.42s3.81 9.42 8 9.42 8-3.54 8-9.42-3.81-9.42-8-9.42m38.35 0c-4.19 0-8 3.54-8 9.42s3.81 9.42 8 9.42 8-3.54 8-9.42-3.81-9.42-8-9.42" style="fill:#af6300"/><linearGradient id="a" x1="63.723" x2="63.723" y1="118.839" y2="6.962" gradientUnits="userSpaceOnUse"><stop offset=".015" style="stop-color:#eb8f00"/><stop offset="1" style="stop-color:#ffd54f"/></linearGradient><path d="M63.77 118.84h-.17c-3.99 0-8.01-.36-11.93-1.07l.54-2.95c3.75.68 7.58 1.03 11.4 1.03h.17v2.99zm11.94-1.1-.55-2.95c3.78-.7 7.48-1.76 10.98-3.14l1.1 2.79a63 63 0 0 1-11.53 3.3m-35.59-3.2c-3.81-1.47-7.41-3.29-10.72-5.43l1.63-2.52c3.13 2.03 6.55 3.76 10.17 5.15zm57.79-5.62-1.65-2.51c2-1.32 3.92-2.77 5.69-4.33a47 47 0 0 0 3.04-2.94l2.18 2.07a50 50 0 0 1-3.23 3.12c-1.88 1.66-3.91 3.2-6.03 4.59m-77.82-7.45a50 50 0 0 1-7.25-9.63l2.6-1.5c1.89 3.27 4.18 6.32 6.81 9.05zm94.28-9.91-2.6-1.49c1.86-3.24 3.37-6.75 4.47-10.44l2.88.86a52.4 52.4 0 0 1-4.75 11.07M8.1 80.77c-1.11-3.72-1.86-7.69-2.22-11.79l2.99-.26c.35 3.9 1.05 7.67 2.11 11.2zm113.24-12.09-2.99-.26c.16-1.8.24-3.66.24-5.52a64 64 0 0 0-.27-5.92l2.99-.28c.19 2.02.28 4.11.28 6.2-.01 1.95-.09 3.89-.25 5.78M8.85 57.27l-2.99-.26c.35-4.1 1.08-8.07 2.18-11.8l2.88.85c-1.04 3.54-1.73 7.31-2.07 11.21m107.28-11.48a49.2 49.2 0 0 0-4.53-10.41l2.59-1.51c2 3.43 3.61 7.15 4.8 11.04zM15.35 35.62l-2.6-1.49c1.99-3.49 4.42-6.74 7.21-9.66l2.17 2.07c-2.62 2.75-4.9 5.81-6.78 9.08m89.43-9.3c-.89-.93-1.85-1.85-2.83-2.72A52 52 0 0 0 96 19.11l1.63-2.52c2.22 1.44 4.34 3.04 6.3 4.76 1.05.93 2.06 1.9 3.01 2.89zm-73.91-7.01-1.64-2.51a58 58 0 0 1 10.7-5.47l1.09 2.8c-3.61 1.4-7.03 3.14-10.15 5.18m54.97-5.35c-3.5-1.34-7.21-2.36-11.01-3.03l.52-2.96c3.99.7 7.88 1.78 11.57 3.19zm-33.82-2.94-.54-2.95c3.92-.72 7.93-1.1 11.93-1.11l.01 3c-3.82.01-7.65.37-11.4 1.06" style="fill:url(#a)"/><path d="M44.28 49.87c-1.03-.72-2.58-.49-3.58.95-1 1.45-.67 2.97.36 3.69s2.58.49 3.58-.95c1-1.45.67-2.97-.36-3.69m38.35 0c-1.03-.72-2.58-.49-3.58.95-1 1.45-.67 2.97.36 3.69s2.58.49 3.58-.95c1.01-1.45.68-2.97-.36-3.69" style="opacity:.4;fill:#fff"/></svg>

<?xml version="1.0" encoding="utf-8"?>
<!-- Generator: Adobe Illustrator 26.3.1, SVG Export Plug-In . SVG Version: 6.00 Build 0)  -->
<svg version="1.1" id="Raised-Hand" xmlns="http://www.w3.org/2000/svg" xmlns:xlink="http://www.w3.org/1999/xlink" x="0px"
	 y="0px" viewBox="0 0 128 128" style="enable-background:new 0 0 128 128;" xml:space="preserve">
<g>
	<g id="neutral-face_00000080885983375266818540000014933881844342678202_">
		<path id="mouth_00000064329789738385436900000009578621846817519233_" style="fill:#823E00;" d="M79,88H49c-2.21,0-4-1.79-4-4
			s1.79-4,4-4h30c2.21,0,4,1.79,4,4S81.21,88,79,88z"/>
	</g>
	<path style="fill:#AF6300;" d="M44.67,45.94L44.67,45.94c-4.19,0-8,3.54-8,9.42s3.81,9.42,8,9.42l0,0c4.19,0,8-3.54,8-9.42
		S48.86,45.94,44.67,45.94z"/>
	<path style="fill:#AF6300;" d="M83.02,45.94L83.02,45.94c-4.19,0-8,3.54-8,9.42s3.81,9.42,8,9.42l0,0c4.19,0,8-3.54,8-9.42
		S87.21,45.94,83.02,45.94z"/>
</g>
<linearGradient id="SVGID_1_" gradientUnits="userSpaceOnUse" x1="63.7232" y1="118.8388" x2="63.7232" y2="6.9618">
	<stop  offset="0.015" style="stop-color:#EB8F00"/>
	<stop  offset="1" style="stop-color:#FFD54F"/>
</linearGradient>
<path style="fill:url(#SVGID_1_);" d="M63.77,118.84H63.6c-3.99,0-8.01-0.36-11.93-1.07l0.54-2.95c3.75,0.68,7.58,1.03,11.4,1.03
	h0.17V118.84z M75.71,117.74l-0.55-2.95c3.78-0.7,7.48-1.76,10.98-3.14l1.1,2.79C83.56,115.89,79.68,117,75.71,117.74z
	 M40.12,114.54c-3.81-1.47-7.41-3.29-10.72-5.43l1.63-2.52c3.13,2.03,6.55,3.76,10.17,5.15L40.12,114.54z M97.91,108.92l-1.65-2.51
	c2-1.32,3.92-2.77,5.69-4.33c1.05-0.93,2.08-1.92,3.04-2.94l2.18,2.07c-1.02,1.08-2.11,2.13-3.23,3.12
	C102.06,105.99,100.03,107.53,97.91,108.92z M20.09,101.47c-2.8-2.91-5.24-6.15-7.25-9.63l2.6-1.5c1.89,3.27,4.18,6.32,6.81,9.05
	L20.09,101.47z M114.37,91.56l-2.6-1.49c1.86-3.24,3.37-6.75,4.47-10.44l2.88,0.86C117.95,84.39,116.35,88.12,114.37,91.56z
	 M8.1,80.77c-1.11-3.72-1.86-7.69-2.22-11.79l2.99-0.26c0.35,3.9,1.05,7.67,2.11,11.2L8.1,80.77z M121.34,68.68l-2.99-0.26
	c0.16-1.8,0.24-3.66,0.24-5.52c0-2-0.09-3.99-0.27-5.92l2.99-0.28c0.19,2.02,0.28,4.11,0.28,6.2
	C121.58,64.85,121.5,66.79,121.34,68.68z M8.85,57.27l-2.99-0.26c0.35-4.1,1.08-8.07,2.18-11.8l2.88,0.85
	C9.88,49.6,9.19,53.37,8.85,57.27z M116.13,45.79c-1.12-3.68-2.65-7.18-4.53-10.41l2.59-1.51c2,3.43,3.61,7.15,4.8,11.04
	L116.13,45.79z M15.35,35.62l-2.6-1.49c1.99-3.49,4.42-6.74,7.21-9.66l2.17,2.07C19.51,29.29,17.23,32.35,15.35,35.62z
	 M104.78,26.32c-0.89-0.93-1.85-1.85-2.83-2.72c-1.85-1.62-3.85-3.13-5.95-4.49l1.63-2.52c2.22,1.44,4.34,3.04,6.3,4.76
	c1.05,0.93,2.06,1.9,3.01,2.89L104.78,26.32z M30.87,19.31l-1.64-2.51c3.29-2.15,6.89-3.99,10.7-5.47l1.09,2.8
	C37.41,15.53,33.99,17.27,30.87,19.31z M85.84,13.96c-3.5-1.34-7.21-2.36-11.01-3.03l0.52-2.96c3.99,0.7,7.88,1.78,11.57,3.19
	L85.84,13.96z M52.02,11.02l-0.54-2.95c3.92-0.72,7.93-1.1,11.93-1.11l0.01,3C59.6,9.97,55.77,10.33,52.02,11.02z"/>
<g>
	<g id="peepers_00000000943899703814137150000008559515959999254185_">
		<path style="opacity:0.4;fill:#FFFFFF;" d="M44.28,49.87L44.28,49.87c-1.03-0.72-2.58-0.49-3.58,0.95c-1,1.45-0.67,2.97,0.36,3.69
			l0,0c1.03,0.72,2.58,0.49,3.58-0.95C45.64,52.11,45.31,50.59,44.28,49.87z"/>
	</g>
</g>
<g>
	<g id="peepers_00000032608173352806590750000000877398772088101567_">
		<path style="opacity:0.4;fill:#FFFFFF;" d="M82.63,49.87L82.63,49.87c-1.03-0.72-2.58-0.49-3.58,0.95c-1,1.45-0.67,2.97,0.36,3.69
			l0,0c1.03,0.72,2.58,0.49,3.58-0.95C84,52.11,83.67,50.59,82.63,49.87z"/>
	</g>
</g>
</svg>
